X:1
T: Achorachan
C:William Marshall
R:Strathspey
Q:128
K:F
M:4/4
L:1/16
|:f2|c3B A3G F2C2 C2DE|F2F2 BAGF d2G2 G2f2|c3B A3G F2C2 C2DE|F2F2 F2d2 c4 A2f2|
c3B A3G F2C2 C2DE|F2F2 BAGF d2G2 G2f2|c3B A3G F2C2 C2DE|F2F2 F2d2 c4 A2c2|
f2f2 f2a2 c2A2 A2c2|d2B2 BAGF E2G2 G2e2|fefg f2a2 c2A2 A2c2|d2c2 A2c2 f4 f2c2|
f2c2 f2a2 c2A2 A2c2|d2B2 cAGF E2G2 G2AB|c2A2 B2G2 F2C2 A,2C2|F2F2 F2d2 c4A2:|
